usr/share/icons/biglinux-icons-material-dark/22/actions/labplot-matrix.svg

<svg xmlns="http://www.w3.org/2000/svg" viewBox="0 0 22 22">
<defs id="defs3051">
<style id="current-color-scheme" type="text/css">
.ColorScheme-Text{color:#dedede}.ColorScheme-Highlight{color:#3daee9}
</style>
</defs>
<path d="M3 3v16h3v-1H4V4h2V3zm13 0v1h2v14h-2v1h3V3z" class="ColorScheme-Text" style="fill:currentColor;fill-opacity:1;stroke:none"/>
<path d="M5 5v5h5V5zm7 0v5h5V5zM6 6h3v3H6zm7 0h3v3h-3zm-8 6v5h5v-5zm7 0v5h5v-5zm-6 1h3v3H6zm7 0h3v3h-3z" class="ColorScheme-Highlight" style="fill:currentColor;fill-opacity:1;stroke:none"/>
</svg>

<svg xmlns="http://www.w3.org/2000/svg" viewBox="0 0 22 22">
  <defs id="defs3051">
    <style type="text/css" id="current-color-scheme">
      .ColorScheme-Text {
        color:#dedede;
      }
      .ColorScheme-Highlight {
        color:#3daee9;
      }
      </style>
  </defs>
 <path 
     style="fill:currentColor;fill-opacity:1;stroke:none" 
     d="M 3 3 L 3 19 L 4 19 L 6 19 L 6 18 L 4 18 L 4 4 L 6 4 L 6 3 L 4 3 L 3 3 z M 16 3 L 16 4 L 18 4 L 18 18 L 16 18 L 16 19 L 18 19 L 19 19 L 19 3 L 18 3 L 16 3 z "
     class="ColorScheme-Text"
     />
 <path 
     style="fill:currentColor;fill-opacity:1;stroke:none" 
     d="M 5 5 L 5 10 L 10 10 L 10 5 L 5 5 z M 12 5 L 12 10 L 17 10 L 17 5 L 12 5 z M 6 6 L 9 6 L 9 9 L 6 9 L 6 6 z M 13 6 L 16 6 L 16 9 L 13 9 L 13 6 z M 5 12 L 5 17 L 10 17 L 10 12 L 5 12 z M 12 12 L 12 17 L 17 17 L 17 12 L 12 12 z M 6 13 L 9 13 L 9 16 L 6 16 L 6 13 z M 13 13 L 16 13 L 16 16 L 13 16 L 13 13 z "
     class="ColorScheme-Highlight"
     />
</svg>
